X:127
T:Merry Boys of Fore (reel), The 
S:Jack Wade
F:file ID: cre.4/127merry_b
B:CRE4.159 (Buachailli Meidhreacha Bhaile Fhobhair)
N:The accented C's in this tune strongly suggest that key is D modal, 
My version here reflects that, although there are no C naturals in the
source.
L:1/8
Q:180
M:4/4
R:reel
K:G
"D modal"
de|fedc ADDE|FGAB cBAG|fdec dcAG|Adce dgfe|
dfec dfed|cAAB cdec|d2ed cAAB|cAGE FD:|
|:de|fdde fded|cAAB cdea|fage fddc|ABcd eaag|
fdde fded|cAAB cdea|fdec dcAG|cAGE FD:|\
"last time"cAGE FDD2-|D8|]

%%%

